packages/blockchain-info-components/src/Images/img/google-pay-icon.svg

<svg fill="none" height="16" viewBox="0 0 32 16" width="32" xmlns="http://www.w3.org/2000/svg"><path d="m23.4894 0h-14.97876c-4.68085 0-8.51064 3.6-8.51064 8s3.82979 8 8.51064 8h14.97876c4.6808 0 8.5106-3.6 8.5106-8s-3.8298-8-8.5106-8z" fill="#fff"/><g fill="#3c4043"><path d="m23.4894.648c1.051 0 2.0723.196 3.034.58.9319.372 1.766.904 2.4894 1.58.7191.676 1.2851 1.464 1.6808 2.34.4085.904.617 1.864.617 2.852s-.2085 1.948-.617 2.852c-.3957.876-.9617 1.66-1.6808 2.34-.7192.676-1.5575 1.208-2.4894 1.58-.9617.384-1.983.58-3.034.58h-14.97876c-1.05107 0-2.07234-.196-3.03404-.58-.93192-.372-1.76596-.904-2.48937-1.58-.71914-.676-1.2851-1.464-1.68085-2.34-.408508-.904-.617018-1.864-.617018-2.852s.20851-1.948.617018-2.852c.39575-.876.96171-1.66 1.68085-2.34.71915-.676 1.55745-1.208 2.48937-1.58.9617-.384 1.98297-.58 3.03404-.58zm0-.648h-14.97876c-4.68085 0-8.51064 3.6-8.51064 8s3.82979 8 8.51064 8h14.97876c4.6808 0 8.5106-3.6 8.5106-8s-3.8298-8-8.5106-8z"/><path d="m15.5662 8.24116v2.57104h-.816v-6.349h2.1631c.5482 0 1.0157.18274 1.3982.54821.3909.36547.5864.81169.5864 1.33865 0 .5397-.1955.98592-.5864 1.34714-.3783.36122-.8457.53971-1.3982.53971h-1.3471zm0-2.99602v2.21408h1.3641c.323 0 .595-.11049.8075-.32722.2167-.21674.3272-.48022.3272-.77769 0-.29323-.1105-.55246-.3272-.76919-.2125-.22524-.4803-.33573-.8075-.33573h-1.3641z"/><path d="m21.0313 6.32455c.6035 0 1.0795.16148 1.4279.48446.3485.32297.5227.76494.5227 1.3259v2.67729h-.7777v-.6035h-.0339c-.3358.4973-.7862.7437-1.3472.7437-.4802 0-.8797-.1402-1.2027-.4249-.3229-.2848-.4844-.63748-.4844-1.06245 0-.45046.17-.80744.5099-1.07092.34-.26772.7947-.39946 1.3599-.39946.4845 0 .884.08924 1.1942.26773v-.18699c0-.28473-.1105-.52271-.3357-.72244-.2253-.19974-.4887-.29748-.7905-.29748-.4547 0-.8159.19123-1.0794.57795l-.7182-.45046c.3952-.57371.9817-.85843 1.7551-.85843zm-1.0539 3.15325c0 .21248.0893.39097.272.5312.1785.1402.391.2125.6332.2125.3442 0 .6502-.1275.9179-.38248.2678-.25498.4037-.55245.4037-.89668-.2549-.19973-.6077-.30172-1.0624-.30172-.3314 0-.6077.08074-.8287.23798-.2252.16573-.3357.36547-.3357.5992z"/><path d="m27.4186 6.46481-2.7198 6.25549h-.8414l1.0114-2.1886-1.7934-4.06689h.8882l1.2919 3.11926h.017l1.2579-3.11926z"/></g><path d="m11.8337 8.09133c0-.29237-.0261-.57213-.0747-.84115h-3.75876v1.54125l2.16476.00046c-.0878.51282-.37037.94997-.80332 1.24141v.9999h1.28862c.7524-.6963 1.1834-1.72569 1.1834-2.94187z" fill="#4285f4"/><path d="m9.3622 10.0333c-.35869.2419-.8206.3834-1.36097.3834-1.04384 0-1.92936-.70335-2.24648-1.65145h-1.32921v1.03123c.65853 1.30682 2.01203 2.20352 3.57569 2.20352 1.08074 0 1.98868-.3554 2.64957-.9673z" fill="#34a853"/><path d="m5.62976 8.00024c0-.26622.04437-.52356.12517-.76549v-1.03123h-1.32921c-.27229.54037-.42548 1.15033-.42548 1.79672s.15366 1.25635.42548 1.79672l1.32921-1.03123c-.0808-.24193-.12517-.49927-.12517-.76549z" fill="#fabb05"/><path d="m8.00123 5.58328c.58988 0 1.11811.20317 1.53518.60015l1.14189-1.14099c-.69353-.64592-1.59773-1.04244-2.67707-1.04244-1.5632 0-2.91716.89672-3.57569 2.20352l1.32921 1.03123c.31712-.9481 1.20264-1.65147 2.24648-1.65147z" fill="#e94235"/></svg>

<svg width="32" height="16" viewBox="0 0 32 16" fill="none" xmlns="http://www.w3.org/2000/svg">
<path d="M23.4894 0H8.51064C3.82979 0 0 3.6 0 8C0 12.4 3.82979 16 8.51064 16H23.4894C28.1702 16 32 12.4 32 8C32 3.6 28.1702 0 23.4894 0Z" fill="white"/>
<path d="M23.4894 0.648C24.5404 0.648 25.5617 0.844 26.5234 1.228C27.4553 1.6 28.2894 2.132 29.0128 2.808C29.7319 3.484 30.2979 4.272 30.6936 5.148C31.1021 6.052 31.3106 7.012 31.3106 8C31.3106 8.988 31.1021 9.948 30.6936 10.852C30.2979 11.728 29.7319 12.512 29.0128 13.192C28.2936 13.868 27.4553 14.4 26.5234 14.772C25.5617 15.156 24.5404 15.352 23.4894 15.352H8.51064C7.45957 15.352 6.4383 15.156 5.4766 14.772C4.54468 14.4 3.71064 13.868 2.98723 13.192C2.26809 12.516 1.70213 11.728 1.30638 10.852C0.897872 9.948 0.689362 8.988 0.689362 8C0.689362 7.012 0.897872 6.052 1.30638 5.148C1.70213 4.272 2.26809 3.488 2.98723 2.808C3.70638 2.132 4.54468 1.6 5.4766 1.228C6.4383 0.844 7.45957 0.648 8.51064 0.648H23.4894ZM23.4894 0H8.51064C3.82979 0 0 3.6 0 8C0 12.4 3.82979 16 8.51064 16H23.4894C28.1702 16 32 12.4 32 8C32 3.6 28.1702 0 23.4894 0Z" fill="#3C4043"/>
<path d="M15.5662 8.24116V10.8122H14.7502V4.4632H16.9133C17.4615 4.4632 17.929 4.64594 18.3115 5.01141C18.7024 5.37688 18.8979 5.8231 18.8979 6.35006C18.8979 6.88976 18.7024 7.33598 18.3115 7.6972C17.9332 8.05842 17.4658 8.23691 16.9133 8.23691H15.5662V8.24116ZM15.5662 5.24514V7.45922H16.9303C17.2533 7.45922 17.5253 7.34873 17.7378 7.132C17.9545 6.91526 18.065 6.65178 18.065 6.35431C18.065 6.06108 17.9545 5.80185 17.7378 5.58512C17.5253 5.35988 17.2575 5.24939 16.9303 5.24939H15.5662V5.24514Z" fill="#3C4043"/>
<path d="M21.0313 6.32455C21.6348 6.32455 22.1108 6.48603 22.4592 6.80901C22.8077 7.13198 22.9819 7.57395 22.9819 8.13491V10.8122H22.2042V10.2087H22.1703C21.8345 10.706 21.3841 10.9524 20.8231 10.9524C20.3429 10.9524 19.9434 10.8122 19.6204 10.5275C19.2975 10.2427 19.136 9.89002 19.136 9.46505C19.136 9.01459 19.306 8.65761 19.6459 8.39413C19.9859 8.12641 20.4406 7.99467 21.0058 7.99467C21.4903 7.99467 21.8898 8.08391 22.2 8.2624V8.07541C22.2 7.79068 22.0895 7.5527 21.8643 7.35297C21.639 7.15323 21.3756 7.05549 21.0738 7.05549C20.6191 7.05549 20.2579 7.24672 19.9944 7.63344L19.2762 7.18298C19.6714 6.60927 20.2579 6.32455 21.0313 6.32455ZM19.9774 9.4778C19.9774 9.69028 20.0667 9.86877 20.2494 10.009C20.4279 10.1492 20.6404 10.2215 20.8826 10.2215C21.2268 10.2215 21.5328 10.094 21.8005 9.83902C22.0683 9.58404 22.2042 9.28657 22.2042 8.94234C21.9493 8.74261 21.5965 8.64062 21.1418 8.64062C20.8104 8.64062 20.5341 8.72136 20.3131 8.8786C20.0879 9.04433 19.9774 9.24407 19.9774 9.4778Z" fill="#3C4043"/>
<path d="M27.4186 6.46481L24.6988 12.7203H23.8574L24.8688 10.5317L23.0754 6.46481H23.9636L25.2555 9.58407H25.2725L26.5304 6.46481H27.4186Z" fill="#3C4043"/>
<path d="M11.8337 8.09133C11.8337 7.79896 11.8076 7.5192 11.759 7.25018H8.00024V8.79143L10.165 8.79189C10.0772 9.30471 9.79463 9.74186 9.36168 10.0333V11.0332H10.6503C11.4027 10.3369 11.8337 9.30751 11.8337 8.09133Z" fill="#4285F4"/>
<path d="M9.3622 10.0333C9.00351 10.2752 8.5416 10.4167 8.00123 10.4167C6.95739 10.4167 6.07187 9.71335 5.75475 8.76525H4.42554V9.79648C5.08407 11.1033 6.43757 12 8.00123 12C9.08197 12 9.98991 11.6446 10.6508 11.0327L9.3622 10.0333Z" fill="#34A853"/>
<path d="M5.62976 8.00024C5.62976 7.73402 5.67413 7.47668 5.75493 7.23475V6.20352H4.42572C4.15343 6.74389 4.00024 7.35385 4.00024 8.00024C4.00024 8.64663 4.1539 9.25659 4.42572 9.79696L5.75493 8.76573C5.67413 8.5238 5.62976 8.26646 5.62976 8.00024Z" fill="#FABB05"/>
<path d="M8.00123 5.58328C8.59111 5.58328 9.11934 5.78645 9.53641 6.18343L10.6783 5.04244C9.98477 4.39652 9.08057 4 8.00123 4C6.43803 4 5.08407 4.89672 4.42554 6.20352L5.75475 7.23475C6.07187 6.28665 6.95739 5.58328 8.00123 5.58328Z" fill="#E94235"/>
</svg>
